icons/markdoc-config.svg

<svg xmlns="http://www.w3.org/2000/svg" viewBox="0 0 32 32"><path fill="#757575" d="M15 2H6a2.006 2.006 0 0 0-2 2v22a2.006 2.006 0 0 0 2 2h6v-4H6v-2h6v-2H6v-2h6v-2H6v-2h6v-2h2V4l8 8h2v-1Z"/><path fill="#ffb300" d="M12 12v18h18V12Zm10 14h-2v-6l-2 2-2-2v6h-2V16h2l2 2 2-2h2Zm6 2h-4V14h4Z"/></svg>

<svg xmlns="http://www.w3.org/2000/svg" viewBox="0 0 32 32"><path d="M15,2H6A2.006,2.006,0,0,0,4,4V26a2.006,2.006,0,0,0,2,2h6V24H6V22h6V20H6V18h6V16H6V14h6V12h2V4l8,8h2V11Z" style="fill:#757575"/><path d="M12,12V30H30V12ZM22,26H20V20l-2,2-2-2v6H14V16h2l2,2,2-2h2Zm6,2H24V14h4Z" style="fill:#ffb300"/></svg>
